%
(MiddleDinPlate)
(T1  D=2 CR=0 - ZMIN=-3 - Schaftfraser)
G90 G94
G17
G21

(2D Contour1)
M9
T1 M6
S5000 M3
G54
M9
G0 X-60.228 Y-4.12
Z5
G1 Z2.712 F333.3
X-60.233 Y-4.125 Z2.66
X-60.247 Y-4.139 Z2.612
X-60.269 Y-4.162 Z2.571
X-60.297 Y-4.192 Z2.539
X-60.331 Y-4.227 Z2.519
X-60.367 Y-4.264 Z2.512
X-60.505 Y-4.408 F500
G3 X-60.499 Y-4.691 I0.144 J-0.138
X-49.5 Y-0.068 Z-2.988 I4.499 J4.691 F333.3
Y-0.035 Z-2.997 I-6.5 J0.068
Y0 Z-3 I-6.5 J0.035
X-62.5 I-6.5 F500
X-49.5 I6.5
X-49.7 Y0.2 I-0.2
G1 X-49.9
G18 G3 X-50.1 Z-2.8 K0.2
G0 Z5
X-66.138 Y-23.905
G1 Z2.712 F333.3
X-66.143 Y-23.91 Z2.66
X-66.157 Y-23.924 Z2.612
X-66.18 Y-23.946 Z2.571
X-66.21 Y-23.974 Z2.539
X-66.245 Y-24.007 Z2.519
X-66.283 Y-24.043 Z2.512
X-66.428 Y-24.181 F500
G17 G3 X-66.435 Y-24.464 I0.138 J-0.145
X-65.565 Y-23.636 Z1.826 I0.435 J0.414 F333.3
X-66.435 Y-24.464 Z1.14 I-0.435 J-0.414
X-65.565 Y-23.636 Z0.454 I0.435 J0.414
X-66.435 Y-24.464 Z-0.232 I-0.435 J-0.414
X-65.565 Y-23.636 Z-0.918 I0.435 J0.414
X-66.435 Y-24.464 Z-1.604 I-0.435 J-0.414
X-65.565 Y-23.636 Z-2.29 I0.435 J0.414
X-66.425 Y-23.626 Z-2.639 I-0.435 J-0.414
X-66.412 Y-24.486 Z-2.988 I0.425 J-0.424
X-66.387 Y-24.508 Z-2.997 I0.412 J0.436
X-66.36 Y-24.53 Z-3 I0.387 J0.458
X-65.64 Y-23.57 I0.36 J0.48 F500
X-66.36 Y-24.53 I-0.36 J-0.48
X-66.08 Y-24.49 I0.12 J0.16
G1 X-65.96 Y-24.33
X-65.929 Y-24.289 Z-2.993
X-65.9 Y-24.25 Z-2.973
X-65.875 Y-24.217 Z-2.941
X-65.856 Y-24.191 Z-2.9
X-65.844 Y-24.175 Z-2.852
X-65.84 Y-24.17 Z-2.8
G0 Z5
X-72.533 Y23.853
G1 Z2.712 F333.3
X-72.526 Y23.852 Z2.66
X-72.507 Y23.848 Z2.612
X-72.475 Y23.843 Z2.571
X-72.435 Y23.836 Z2.539
X-72.387 Y23.828 Z2.519
X-72.336 Y23.82 Z2.512
X-72.139 Y23.786 F500
G3 X-71.908 Y23.951 I0.033 J0.197
X-71.9 Y24.05 Z2.476 I-0.592 J0.099 F333.3
X-73.1 Z1.79 I-0.6
X-71.9 Z1.104 I0.6
X-73.1 Z0.418 I-0.6
X-71.9 Z-0.269 I0.6
X-73.1 Z-0.955 I-0.6
X-71.9 Z-1.641 I0.6
X-73.1 Z-2.327 I-0.6
X-71.904 Y23.982 Z-2.988 I0.6
X-71.901 Y24.015 Z-2.997 I-0.596 J0.068
X-71.9 Y24.05 Z-3 I-0.599 J0.035
X-73.1 I-0.6 F500
X-71.9 I0.6
X-72.1 Y24.25 I-0.2
G1 X-72.3
G18 G3 X-72.5 Z-2.8 K0.2
G0 Z5
X72.362 Y24.195
G1 Z2.712 F333.3
X72.357 Y24.19 Z2.66
X72.343 Y24.176 Z2.612
X72.32 Y24.154 Z2.571
X72.29 Y24.126 Z2.539
X72.255 Y24.093 Z2.519
X72.217 Y24.057 Z2.512
X72.072 Y23.919 F500
G17 G3 X72.065 Y23.636 I0.138 J-0.145
X72.935 Y24.464 Z1.826 I0.435 J0.414 F333.3
X72.065 Y23.636 Z1.14 I-0.435 J-0.414
X72.935 Y24.464 Z0.454 I0.435 J0.414
X72.065 Y23.636 Z-0.232 I-0.435 J-0.414
X72.935 Y24.464 Z-0.918 I0.435 J0.414
X72.065 Y23.636 Z-1.604 I-0.435 J-0.414
X72.935 Y24.464 Z-2.29 I0.435 J0.414
X72.075 Y24.474 Z-2.639 I-0.435 J-0.414
X72.088 Y23.614 Z-2.988 I0.425 J-0.424
X72.113 Y23.592 Z-2.997 I0.412 J0.436
X72.14 Y23.57 Z-3 I0.387 J0.458
X72.86 Y24.53 I0.36 J0.48 F500
X72.14 Y23.57 I-0.36 J-0.48
X72.42 Y23.61 I0.12 J0.16
G1 X72.54 Y23.77
X72.571 Y23.811 Z-2.993
X72.6 Y23.85 Z-2.973
X72.625 Y23.883 Z-2.941
X72.644 Y23.909 Z-2.9
X72.656 Y23.925 Z-2.852
X72.66 Y23.93 Z-2.8
G0 Z5
X66.178 Y-23.958
G1 Z2.712 F333.3
X66.175 Y-23.952 Z2.66
X66.165 Y-23.934 Z2.612
X66.151 Y-23.906 Z2.571
X66.132 Y-23.869 Z2.539
X66.11 Y-23.826 Z2.519
X66.086 Y-23.78 Z2.512
X65.994 Y-23.603 F500
G3 X65.725 Y-23.517 I-0.178 J-0.092
X66.275 Y-24.583 Z1.826 I0.275 J-0.533 F333.3
X65.725 Y-23.517 Z1.14 I-0.275 J0.533
X66.275 Y-24.583 Z0.454 I0.275 J-0.533
X65.725 Y-23.517 Z-0.232 I-0.275 J0.533
X66.275 Y-24.583 Z-0.918 I0.275 J-0.533
X65.725 Y-23.517 Z-1.604 I-0.275 J0.533
X66.275 Y-24.583 Z-2.29 I0.275 J-0.533
X66.526 Y-23.761 Z-2.639 I-0.275 J0.533
X65.697 Y-23.532 Z-2.988 I-0.526 J-0.289
X65.668 Y-23.55 Z-2.997 I0.303 J-0.518
X65.64 Y-23.57 Z-3 I0.332 J-0.5
X66.36 Y-24.53 I0.36 J-0.48 F500
X65.64 Y-23.57 I-0.36 J0.48
X65.6 Y-23.85 I0.12 J-0.16
G1 X65.72 Y-24.01
X65.751 Y-24.051 Z-2.993
X65.78 Y-24.09 Z-2.973
X65.805 Y-24.123 Z-2.941
X65.824 Y-24.149 Z-2.9
X65.836 Y-24.165 Z-2.852
X65.84 Y-24.17 Z-2.8
G0 Z5

(2D Contour2)
M9
X15.38 Y-30.1
G1 Z5 F333.3
Z2.712
G19 G3 Y-29.9 Z2.512 J0.2
G1 Y-29.7 F500
G17 G3 X15.18 Y-29.5 I-0.2
G1 X0.068 Z-2.988 F333.3
G18 G3 X0 Z-3 I-0.068 K0.188
G1 X-76 F500
G17 G2 X-77 Y-28.5 J1
G1 Y-5
G2 X-76 Y-4 I1
G1 X-75
Y4
X-76
G2 X-77 Y5 J1
G1 Y28.5
G2 X-76 Y29.5 I1
G1 X76
G2 X77 Y28.5 J-1
G1 Y5
G2 X76 Y4 I-1
G1 X75
Y-4
X76
G2 X77 Y-5 J-1
G1 Y-28.5
G2 X76 Y-29.5 I-1
G1 X0
G3 X-0.2 Y-29.7 J-0.2
G1 Y-29.9
G19 G2 Y-30.1 Z-2.8 K0.2
G0 Z5
G17
M9
M30
%
