%
(Side)
(T1  D=2 CR=0 - ZMIN=-3 - flat end mill)
G90 G94
G17
G21

(2D Contour2)
M9
T1 M6
S5000 M3
G54
M9
G0 X-57.9 Y-12.12
Z5
G1 Z2.712 F333.3
G18 G3 X-58.1 Z2.512 I-0.2
G1 X-58.3 F500
G17 G3 X-58.5 Y-12.32 J-0.2
G1 Y-15 Z1.537 F333.3
X-50.5 Z-1.375
Y-12 Z-2.467
X-51.932 Z-2.988
G18 G3 X-52 Z-3 I-0.068 K0.188
G1 X-58.5 F500
Y-15
X-50.5
Y-12
X-52
G17 G3 X-52.2 Y-12.2 J-0.2
G1 Y-12.4
G19 G2 Y-12.6 Z-2.8 K0.2
G0 Z5
X-39.467 Y-13.303
G1 Z2.712 F333.3
X-39.474 Y-13.302 Z2.66
X-39.493 Y-13.298 Z2.612
X-39.525 Y-13.293 Z2.571
X-39.565 Y-13.286 Z2.539
X-39.613 Y-13.278 Z2.519
X-39.664 Y-13.27 Z2.512
X-39.861 Y-13.236 F500
G17 G3 X-40.092 Y-13.401 I-0.033 J-0.197
X-40.1 Y-13.5 Z2.476 I0.592 J-0.099 F333.3
X-38.9 Z1.79 I0.6
X-40.1 Z1.104 I-0.6
X-38.9 Z0.418 I0.6
X-40.1 Z-0.269 I-0.6
X-38.9 Z-0.955 I0.6
X-40.1 Z-1.641 I-0.6
X-38.9 Z-2.327 I0.6
X-40.096 Y-13.432 Z-2.988 I-0.6
X-40.099 Y-13.465 Z-2.997 I0.596 J-0.068
X-40.1 Y-13.5 Z-3 I0.599 J-0.035
X-38.9 I0.6 F500
X-40.1 I-0.6
X-39.9 Y-13.7 I0.2
G1 X-39.7
G18 G2 X-39.5 Z-2.8 K0.2
G0 Z5
X-69.638 Y-13.355
G1 Z2.712 F333.3
X-69.643 Y-13.36 Z2.66
X-69.657 Y-13.374 Z2.612
X-69.68 Y-13.396 Z2.571
X-69.71 Y-13.424 Z2.539
X-69.745 Y-13.457 Z2.519
X-69.783 Y-13.493 Z2.512
X-69.928 Y-13.631 F500
G17 G3 X-69.935 Y-13.914 I0.138 J-0.145
X-69.065 Y-13.086 Z1.826 I0.435 J0.414 F333.3
X-69.935 Y-13.914 Z1.14 I-0.435 J-0.414
X-69.065 Y-13.086 Z0.454 I0.435 J0.414
X-69.935 Y-13.914 Z-0.232 I-0.435 J-0.414
X-69.065 Y-13.086 Z-0.918 I0.435 J0.414
X-69.935 Y-13.914 Z-1.604 I-0.435 J-0.414
X-69.065 Y-13.086 Z-2.29 I0.435 J0.414
X-69.925 Y-13.076 Z-2.639 I-0.435 J-0.414
X-69.912 Y-13.936 Z-2.988 I0.425 J-0.424
X-69.887 Y-13.958 Z-2.997 I0.412 J0.436
X-69.86 Y-13.98 Z-3 I0.387 J0.458
X-69.14 Y-13.02 I0.36 J0.48 F500
X-69.86 Y-13.98 I-0.36 J-0.48
X-69.58 Y-13.94 I0.12 J0.16
G1 X-69.46 Y-13.78
X-69.429 Y-13.739 Z-2.993
X-69.4 Y-13.7 Z-2.973
X-69.375 Y-13.667 Z-2.941
X-69.356 Y-13.641 Z-2.9
X-69.344 Y-13.625 Z-2.852
X-69.34 Y-13.62 Z-2.8
G0 Z5
M9
M30
%
