%
(2D Contour1)
(T1  D=2 CR=0 - ZMIN=-3.5 - flat end mill)
G90 G94
G17
G21

(2D Contour1)
M9
T1 M6
S5000 M3
G54
M9
G0 X19.307 Y-23.733
Z15
Z5
G1 Z2.712 F333.3
X19.304 Y-23.739 Z2.66
X19.297 Y-23.758 Z2.612
X19.286 Y-23.787 Z2.571
X19.271 Y-23.826 Z2.539
X19.253 Y-23.871 Z2.519
X19.234 Y-23.919 Z2.512
X19.162 Y-24.106 F600
G3 X19.276 Y-24.364 I0.186 J-0.072
X20.724 Y-20.636 Z0.225 I0.724 J1.864 F333.3
X18.855 Y-20.86 Z-0.488 I-0.724 J-1.864
X18.828 Y-20.879 Z-0.497 I1.145 J-1.64
X18.8 Y-20.9 Z-0.5 I1.172 J-1.621
X21.2 Y-24.1 I1.2 J-1.6 F600
X18.8 Y-20.9 I-1.2 J1.6
X18.058 Y-22.024 Z-1 I1.2 J-1.6 F333.3
X21.942 Y-22.976 I1.942 J-0.476 F600
X18.058 Y-22.024 I-1.942 J0.476
X18.196 Y-23.364 Z-1.5 I1.942 J-0.476 F333.3
X21.804 Y-21.636 I1.804 J0.864 F600
X18.196 Y-23.364 I-1.804 J-0.864
X19.153 Y-24.312 Z-2 I1.804 J0.864 F333.3
X20.847 Y-20.688 I0.847 J1.812 F600
X19.153 Y-24.312 I-0.847 J-1.812
X20.494 Y-24.438 Z-2.5 I0.847 J1.812 F333.3
X19.506 Y-20.562 I-0.494 J1.938 F600
X20.494 Y-24.438 I0.494 J-1.938
X21.611 Y-23.686 Z-3 I-0.494 J1.938 F333.3
X18.389 Y-21.314 I-1.611 J1.186 F600
X21.611 Y-23.686 I1.611 J-1.186
X21.997 Y-22.395 Z-3.5 I-1.611 J1.186 F333.3
X18.003 Y-22.605 I-1.997 J-0.105 F600
X21.997 Y-22.395 I1.997 J0.105
X21.787 Y-22.206 I-0.2 J-0.01
G1 X21.587 Y-22.217
X21.536 Y-22.219 Z-3.493
X21.487 Y-22.222 Z-3.473
X21.446 Y-22.224 Z-3.441
X21.414 Y-22.226 Z-3.4
X21.394 Y-22.227 Z-3.352
X21.388 Z-3.3
G0 Z15
M9
M30
%
