%
(2D Contour1)
(T1  D=2 CR=0 - ZMIN=-3 - flat end mill)
G90 G94
G17
G21

(2D Contour2)
M9
T1 M6
S5000 M3
G54
M9
G0 X67.989 Y6.6
Z10
Z5
G1 Z2.712 F333.3
G19 G2 Y6.4 Z2.512 J-0.2
G1 Y6.2 F600
G17 G3 X68.189 Y6 I0.2
G1 X70.5 Z1.671 F333.3
Y11.932 Z-0.488
G19 G3 Y12 Z-0.5 J0.068 K0.188
G1 Y18 F600
X56.5
Y6
X70.5
Y12
Y13.374 Z-1 F333.3
Y18 F600
X56.5
Y6
X70.5
Y12
Y13.374
Y14.747 Z-1.5 F333.3
Y18 F600
X56.5
Y6
X70.5
Y13.374
Y14.747
Y16.121 Z-2 F333.3
Y18 F600
X56.5
Y6
X70.5
Y14.747
Y16.121
Y17.495 Z-2.5 F333.3
Y18 F600
X56.5
Y6
X70.5
Y16.121
Y17.495
Y18 Z-2.684 F333.3
X69.631 Z-3
X56.5 F600
Y6
X70.5
Y17.495
Y18
X69.631
G17 G3 X69.431 Y17.8 J-0.2
G1 Y17.6
G19 G2 Y17.4 Z-2.8 K0.2
G0 Z5
X129.4 Y14.989
G1 Z2.712 F333.3
G18 G2 X129.6 Z2.512 I0.2
G1 X129.8 F600
G17 G3 X130 Y15.189 J0.2
G1 Y20.25 Z0.67 F333.3
X126.818 Z-0.488
G18 G3 X126.75 Z-0.5 I-0.068 K0.188
G1 X119 F600
Y13.75
X130
Y20.25
X126.75
X125.376 Z-1 F333.3
X119 F600
Y13.75
X130
Y20.25
X126.75
X125.376
X124.003 Z-1.5 F333.3
X119 F600
Y13.75
X130
Y20.25
X125.376
X124.003
X122.629 Z-2 F333.3
X119 F600
Y13.75
X130
Y20.25
X124.003
X122.629
X121.255 Z-2.5 F333.3
X119 F600
Y13.75
X130
Y20.25
X122.629
X121.255
X119.881 Z-3 F333.3
X119 F600
Y13.75
X130
Y20.25
X121.255
X119.881
G17 G3 X119.681 Y20.05 J-0.2
G1 Y19.85
G19 G2 Y19.65 Z-2.8 K0.2
G0 Z10
G17
M9
M30
%
