%
(MiddleDinPlate)
(T1  D=2 CR=0 - ZMIN=-3 - flat end mill)
G90 G94
G17
G21

(2D Contour3)
M9
T1 M6
S5000 M3
G54
M9
G0 X6.6 Y-67.989
Z10
Z5
G1 Z2.712 F333.3
G18 G3 X6.4 Z2.512 I-0.2
G1 X6.2 F600
G17 G3 X6 Y-68.189 J-0.2
G1 Y-70.5 Z1.671 F333.3
X11.932 Z-0.488
G18 G2 X12 Z-0.5 I0.068 K0.188
G1 X18 F600
Y-56.5
X6
Y-70.5
X12
X13.374 Z-1 F333.3
X18 F600
Y-56.5
X6
Y-70.5
X12
X13.374
X14.747 Z-1.5 F333.3
X18 F600
Y-56.5
X6
Y-70.5
X13.374
X14.747
X16.121 Z-2 F333.3
X18 F600
Y-56.5
X6
Y-70.5
X14.747
X16.121
X17.495 Z-2.5 F333.3
X18 F600
Y-56.5
X6
Y-70.5
X16.121
X17.495
X18 Z-2.684 F333.3
Y-69.631 Z-3
Y-56.5 F600
X6
Y-70.5
X17.495
X18
Y-69.631
G17 G3 X17.8 Y-69.431 I-0.2
G1 X17.6
G18 G3 X17.4 Z-2.8 K0.2
G0 Z5
X14.989 Y-129.4
G1 Z2.712 F333.3
G19 G2 Y-129.6 Z2.512 J-0.2
G1 Y-129.8 F600
G17 G3 X15.189 Y-130 I0.2
G1 X20.25 Z0.67 F333.3
Y-126.818 Z-0.488
G19 G3 Y-126.75 Z-0.5 J0.068 K0.188
G1 Y-119 F600
X13.75
Y-130
X20.25
Y-126.75
Y-125.376 Z-1 F333.3
Y-119 F600
X13.75
Y-130
X20.25
Y-126.75
Y-125.376
Y-124.003 Z-1.5 F333.3
Y-119 F600
X13.75
Y-130
X20.25
Y-125.376
Y-124.003
Y-122.629 Z-2 F333.3
Y-119 F600
X13.75
Y-130
X20.25
Y-124.003
Y-122.629
Y-121.255 Z-2.5 F333.3
Y-119 F600
X13.75
Y-130
X20.25
Y-122.629
Y-121.255
Y-119.881 Z-3 F333.3
Y-119 F600
X13.75
Y-130
X20.25
Y-121.255
Y-119.881
G17 G3 X20.05 Y-119.681 I-0.2
G1 X19.85
G18 G3 X19.65 Z-2.8 K0.2
G0 Z10
G17
M9
M30
%
