%
(MiddleDinPlate)
(T1  D=2 CR=0 - ZMIN=-3 - flat end mill)
G90 G94
G17
G21

(2D Contour1)
M9
T1 M6
S5000 M3
G54
M9
G0 X31.814 Y-15.074
Z5
G1 Z2.712 F333.3
X31.82 Y-15.077 Z2.66
X31.837 Y-15.087 Z2.612
X31.865 Y-15.103 Z2.571
X31.901 Y-15.124 Z2.539
X31.943 Y-15.148 Z2.519
X31.987 Y-15.173 Z2.512
X32.161 Y-15.273 F800
G3 X32.434 Y-15.198 I0.099 J0.174
X31.566 Y-14.702 Z1.94 I-0.434 J0.248 F333.3
X32.434 Y-15.198 Z1.369 I0.434 J-0.248
X31.566 Y-14.702 Z0.797 I-0.434 J0.248
X32.434 Y-15.198 Z0.225 I0.434 J-0.248
X31.566 Y-14.702 Z-0.347 I-0.434 J0.248
X32.434 Y-15.198 Z-0.918 I0.434 J-0.248
X32.495 Y-15.018 Z-0.988 I-0.434 J0.248
X32.499 Y-14.985 Z-0.997 I-0.495 J0.068
X32.5 Y-14.95 Z-1 I-0.499 J0.035
X31.5 I-0.5 F800
X32.5 I0.5
X31.5 Z-1.572 I-0.5 F333.3
X32.353 Y-15.305 Z-2 I0.5
X31.647 Y-14.595 I-0.353 J0.355 F800
X32.353 Y-15.305 I0.353 J-0.355
X31.647 Y-14.595 Z-2.572 I-0.353 J0.355 F333.3
X31.997 Y-15.45 Z-3 I0.353 J-0.355
X32.003 Y-14.45 I0.003 J0.5 F800
X31.997 Y-15.45 I-0.003 J-0.5
X32.198 Y-15.251 I0.001 J0.2
G1 X32.199 Y-15.051
X32.2 Y-14.999 Z-2.993
Y-14.951 Z-2.973
Y-14.91 Z-2.941
Y-14.878 Z-2.9
X32.201 Y-14.858 Z-2.852
Y-14.851 Z-2.8
G0 Z5
X31.814 Y14.926
G1 Z2.712 F333.3
X31.82 Y14.923 Z2.66
X31.837 Y14.913 Z2.612
X31.865 Y14.897 Z2.571
X31.901 Y14.876 Z2.539
X31.943 Y14.852 Z2.519
X31.987 Y14.827 Z2.512
X32.161 Y14.727 F800
G3 X32.434 Y14.802 I0.099 J0.174
X31.566 Y15.298 Z1.94 I-0.434 J0.248 F333.3
X32.434 Y14.802 Z1.369 I0.434 J-0.248
X31.566 Y15.298 Z0.797 I-0.434 J0.248
X32.434 Y14.802 Z0.225 I0.434 J-0.248
X31.566 Y15.298 Z-0.347 I-0.434 J0.248
X32.434 Y14.802 Z-0.918 I0.434 J-0.248
X32.495 Y14.982 Z-0.988 I-0.434 J0.248
X32.499 Y15.015 Z-0.997 I-0.495 J0.068
X32.5 Y15.05 Z-1 I-0.499 J0.035
X31.5 I-0.5 F800
X32.5 I0.5
X31.5 Z-1.572 I-0.5 F333.3
X32.353 Y14.695 Z-2 I0.5
X31.647 Y15.405 I-0.353 J0.355 F800
X32.353 Y14.695 I0.353 J-0.355
X31.647 Y15.405 Z-2.572 I-0.353 J0.355 F333.3
X31.997 Y14.55 Z-3 I0.353 J-0.355
X32.003 Y15.55 I0.003 J0.5 F800
X31.997 Y14.55 I-0.003 J-0.5
X32.198 Y14.749 I0.001 J0.2
G1 X32.199 Y14.949
X32.2 Y15.001 Z-2.993
Y15.049 Z-2.973
Y15.09 Z-2.941
Y15.122 Z-2.9
X32.201 Y15.142 Z-2.852
Y15.149 Z-2.8
G0 Z5
X72.595 Y23.874
G1 Z2.712 F333.3
X72.601 Y23.877 Z2.66
X72.618 Y23.887 Z2.612
X72.646 Y23.902 Z2.571
X72.683 Y23.921 Z2.539
X72.725 Y23.944 Z2.519
X72.771 Y23.969 Z2.512
X72.947 Y24.064 F800
G3 X73.028 Y24.335 I-0.095 J0.176
X71.972 Y23.765 Z1.826 I-0.528 J-0.285 F333.3
X73.028 Y24.335 Z1.14 I0.528 J0.285
X71.972 Y23.765 Z0.454 I-0.528 J-0.285
X73.028 Y24.335 Z-0.232 I0.528 J0.285
X71.972 Y23.765 Z-0.918 I-0.528 J-0.285
X72.088 Y23.614 Z-0.988 I0.528 J0.285
X72.113 Y23.592 Z-0.997 I0.412 J0.436
X72.14 Y23.57 Z-1 I0.387 J0.458
X72.86 Y24.53 I0.36 J0.48 F800
X72.14 Y23.57 I-0.36 J-0.48
X72.86 Y24.53 Z-1.686 I0.36 J0.48 F333.3
X72.14 Z-1.967 I-0.36 J-0.48
X72.072 Y24.471 Z-2 I0.36 J-0.48
X72.928 Y23.629 I0.428 J-0.421 F800
X72.072 Y24.471 I-0.428 J0.421
X72.928 Y23.629 Z-2.686 I0.428 J-0.421 F333.3
X72.974 Y24.418 Z-3 I-0.428 J0.421
X72.026 Y23.682 I-0.474 J-0.368 F800
X72.974 Y24.418 I0.474 J0.368
X72.693 Y24.453 I-0.158 J-0.123
G1 X72.535 Y24.331
X72.494 Y24.299 Z-2.993
X72.456 Y24.269 Z-2.973
X72.424 Y24.244 Z-2.941
X72.398 Y24.224 Z-2.9
X72.383 Y24.212 Z-2.852
X72.377 Y24.208 Z-2.8
G0 Z5
X65.804 Y-24.092
G1 Z2.712 F333.3
X65.806 Y-24.098 Z2.66
X65.81 Y-24.118 Z2.612
X65.817 Y-24.149 Z2.571
X65.825 Y-24.19 Z2.539
X65.835 Y-24.237 Z2.519
X65.846 Y-24.287 Z2.512
X65.888 Y-24.483 F800
G3 X66.125 Y-24.637 I0.196 J0.042
X65.875 Y-23.463 Z1.826 I-0.125 J0.587 F333.3
X66.125 Y-24.637 Z1.14 I0.125 J-0.587
X65.875 Y-23.463 Z0.454 I-0.125 J0.587
X66.125 Y-24.637 Z-0.232 I0.125 J-0.587
X65.875 Y-23.463 Z-0.918 I-0.125 J0.587
X65.697 Y-23.532 Z-0.988 I0.125 J-0.587
X65.668 Y-23.55 Z-0.997 I0.303 J-0.518
X65.64 Y-23.57 Z-1 I0.332 J-0.5
X66.36 Y-24.53 I0.36 J-0.48 F800
X65.64 Y-23.57 I-0.36 J0.48
X66.36 Y-24.53 Z-1.686 I0.36 J-0.48 F333.3
X66.524 Y-23.757 Z-2 I-0.36 J0.48
X65.476 Y-24.343 I-0.524 J-0.293 F800
X66.524 Y-23.757 I0.524 J0.293
X65.476 Y-24.343 Z-2.686 I-0.524 J-0.293 F333.3
X66.221 Y-24.608 Z-3 I0.524 J0.293
X65.779 Y-23.492 I-0.221 J0.558 F800
X66.221 Y-24.608 I0.221 J-0.558
X66.333 Y-24.348 I-0.074 J0.186
G1 X66.26 Y-24.162
X66.241 Y-24.114 Z-2.993
X66.223 Y-24.069 Z-2.973
X66.208 Y-24.031 Z-2.941
X66.196 Y-24.001 Z-2.9
X66.188 Y-23.983 Z-2.852
X66.186 Y-23.976 Z-2.8
G0 Z5
X-55.723 Y-5.897
G1 Z2.712 F333.3
X-55.722 Y-5.904 Z2.66
X-55.721 Y-5.924 Z2.612
X-55.718 Y-5.955 Z2.571
X-55.715 Y-5.997 Z2.539
X-55.711 Y-6.045 Z2.519
X-55.707 Y-6.096 Z2.512
X-55.69 Y-6.296 F800
G3 X-55.475 Y-6.479 I0.199 J0.016
X-49.5 Y-0.068 Z-0.988 I-0.525 J6.479 F333.3
Y-0.035 Z-0.997 I-6.5 J0.068
Y0 Z-1 I-6.5 J0.035
X-62.5 I-6.5 F800
X-49.5 I6.5
X-50.072 Y2.666 Z-2 I-6.5 F333.3
X-61.928 Y-2.666 I-5.928 J-2.666 F800
X-50.072 Y2.666 I5.928 J2.666
X-51.688 Y4.863 Z-3 I-5.928 J-2.666 F333.3
X-60.312 Y-4.863 I-4.312 J-4.863 F800
X-51.688 Y4.863 I4.312 J4.863
X-51.97 Y4.846 I-0.133 J-0.15
G1 X-52.103 Y4.697
X-52.137 Y4.658 Z-2.993
X-52.169 Y4.622 Z-2.973
X-52.196 Y4.591 Z-2.941
X-52.218 Y4.567 Z-2.9
X-52.231 Y4.552 Z-2.852
X-52.235 Y4.547 Z-2.8
G0 Z5
X-55.987 Y15.273
G1 Z2.712 F333.3
X-55.994 Y15.271 Z2.66
X-56.012 Y15.263 Z2.612
X-56.041 Y15.25 Z2.571
X-56.079 Y15.234 Z2.539
X-56.124 Y15.214 Z2.519
X-56.171 Y15.194 Z2.512
X-56.355 Y15.115 F800
G3 X-56.459 Y14.852 I0.079 J-0.184
X-55.541 Y15.248 Z1.94 I0.459 J0.198 F333.3
X-56.459 Y14.852 Z1.369 I-0.459 J-0.198
X-55.541 Y15.248 Z0.797 I0.459 J0.198
X-56.459 Y14.852 Z0.225 I-0.459 J-0.198
X-55.541 Y15.248 Z-0.347 I0.459 J0.198
X-56.459 Y14.852 Z-0.918 I-0.459 J-0.198
X-56.352 Y14.695 Z-0.988 I0.459 J0.198
X-56.327 Y14.672 Z-0.997 I0.352 J0.355
X-56.3 Y14.65 Z-1 I0.327 J0.378
X-55.7 Y15.45 I0.3 J0.4 F800
X-56.3 Y14.65 I-0.3 J-0.4
X-55.7 Y15.45 Z-1.572 I0.3 J0.4 F333.3
X-56.495 Y14.981 Z-2 I-0.3 J-0.4
X-55.505 Y15.119 I0.495 J0.069 F800
X-56.495 Y14.981 I-0.495 J-0.069
X-55.505 Y15.119 Z-2.572 I0.495 J0.069 F333.3
X-56.398 Y15.352 Z-3 I-0.495 J-0.069
X-55.602 Y14.748 I0.398 J-0.302 F800
X-56.398 Y15.352 I-0.398 J0.302
X-56.36 Y15.072 I0.159 J-0.121
G1 X-56.201 Y14.951
X-56.159 Y14.92 Z-2.993
X-56.121 Y14.891 Z-2.973
X-56.088 Y14.866 Z-2.941
X-56.063 Y14.846 Z-2.9
X-56.047 Y14.834 Z-2.852
X-56.041 Y14.83 Z-2.8
G0 Z5
X-72.416 Y24.232
G1 Z2.712 F333.3
X-72.422 Y24.234 Z2.66
X-72.44 Y24.243 Z2.612
X-72.469 Y24.256 Z2.571
X-72.507 Y24.274 Z2.539
X-72.551 Y24.294 Z2.519
X-72.598 Y24.315 Z2.512
X-72.779 Y24.399 F800
G3 X-73.045 Y24.302 I-0.084 J-0.182
X-71.955 Y23.798 Z1.826 I0.545 J-0.252 F333.3
X-73.045 Y24.302 Z1.14 I-0.545 J0.252
X-71.955 Y23.798 Z0.454 I0.545 J-0.252
X-73.045 Y24.302 Z-0.232 I-0.545 J0.252
X-71.955 Y23.798 Z-0.918 I0.545 J-0.252
X-71.904 Y23.982 Z-0.988 I-0.545 J0.252
X-71.901 Y24.015 Z-0.997 I-0.596 J0.068
X-71.9 Y24.05 Z-1 I-0.599 J0.035
X-73.1 I-0.6 F800
X-71.9 I0.6
X-73.1 Z-1.686 I-0.6 F333.3
X-72.58 Y23.455 Z-2 I0.6
X-72.42 Y24.645 I0.08 J0.595 F800
X-72.58 Y23.455 I-0.08 J-0.595
X-72.42 Y24.645 Z-2.686 I0.08 J0.595 F333.3
X-73.079 Y24.208 Z-3 I-0.08 J-0.595
X-71.921 Y23.892 I0.579 J-0.158 F800
X-73.079 Y24.208 I-0.579 J0.158
X-72.939 Y23.962 I0.193 J-0.053
G1 X-72.746 Y23.91
X-72.696 Y23.896 Z-2.993
X-72.649 Y23.883 Z-2.973
X-72.609 Y23.872 Z-2.941
X-72.579 Y23.864 Z-2.9
X-72.559 Y23.859 Z-2.852
X-72.553 Y23.857 Z-2.8
G0 Z5
X-55.987 Y-14.727
G1 Z2.712 F333.3
X-55.994 Y-14.729 Z2.66
X-56.012 Y-14.737 Z2.612
X-56.041 Y-14.75 Z2.571
X-56.079 Y-14.766 Z2.539
X-56.124 Y-14.786 Z2.519
X-56.171 Y-14.806 Z2.512
X-56.355 Y-14.885 F800
G3 X-56.459 Y-15.148 I0.079 J-0.184
X-55.541 Y-14.752 Z1.94 I0.459 J0.198 F333.3
X-56.459 Y-15.148 Z1.369 I-0.459 J-0.198
X-55.541 Y-14.752 Z0.797 I0.459 J0.198
X-56.459 Y-15.148 Z0.225 I-0.459 J-0.198
X-55.541 Y-14.752 Z-0.347 I0.459 J0.198
X-56.459 Y-15.148 Z-0.918 I-0.459 J-0.198
X-56.352 Y-15.305 Z-0.988 I0.459 J0.198
X-56.327 Y-15.328 Z-0.997 I0.352 J0.355
X-56.3 Y-15.35 Z-1 I0.327 J0.378
X-55.7 Y-14.55 I0.3 J0.4 F800
X-56.3 Y-15.35 I-0.3 J-0.4
X-55.7 Y-14.55 Z-1.572 I0.3 J0.4 F333.3
X-56.495 Y-15.019 Z-2 I-0.3 J-0.4
X-55.505 Y-14.881 I0.495 J0.069 F800
X-56.495 Y-15.019 I-0.495 J-0.069
X-55.505 Y-14.881 Z-2.572 I0.495 J0.069 F333.3
X-56.398 Y-14.648 Z-3 I-0.495 J-0.069
X-55.602 Y-15.252 I0.398 J-0.302 F800
X-56.398 Y-14.648 I-0.398 J0.302
X-56.36 Y-14.928 I0.159 J-0.121
G1 X-56.201 Y-15.049
X-56.159 Y-15.08 Z-2.993
X-56.121 Y-15.109 Z-2.973
X-56.088 Y-15.134 Z-2.941
X-56.063 Y-15.154 Z-2.9
X-56.047 Y-15.166 Z-2.852
X-56.041 Y-15.17 Z-2.8
G0 Z5
X-65.905 Y-24.226
G1 Z2.712 F333.3
X-65.899 Y-24.223 Z2.66
X-65.882 Y-24.213 Z2.612
X-65.854 Y-24.198 Z2.571
X-65.817 Y-24.179 Z2.539
X-65.775 Y-24.156 Z2.519
X-65.729 Y-24.131 Z2.512
X-65.553 Y-24.036 F800
G3 X-65.472 Y-23.765 I-0.095 J0.176
X-66.528 Y-24.335 Z1.826 I-0.528 J-0.285 F333.3
X-65.472 Y-23.765 Z1.14 I0.528 J0.285
X-66.528 Y-24.335 Z0.454 I-0.528 J-0.285
X-65.472 Y-23.765 Z-0.232 I0.528 J0.285
X-66.528 Y-24.335 Z-0.918 I-0.528 J-0.285
X-66.412 Y-24.486 Z-0.988 I0.528 J0.285
X-66.387 Y-24.508 Z-0.997 I0.412 J0.436
X-66.36 Y-24.53 Z-1 I0.387 J0.458
X-65.64 Y-23.57 I0.36 J0.48 F800
X-66.36 Y-24.53 I-0.36 J-0.48
X-65.64 Y-23.57 Z-1.686 I0.36 J0.48 F333.3
X-66.36 Z-1.967 I-0.36 J-0.48
X-66.428 Y-23.629 Z-2 I0.36 J-0.48
X-65.572 Y-24.471 I0.428 J-0.421 F800
X-66.428 Y-23.629 I-0.428 J0.421
X-65.572 Y-24.471 Z-2.686 I0.428 J-0.421 F333.3
X-65.526 Y-23.682 Z-3 I-0.428 J0.421
X-66.474 Y-24.418 I-0.474 J-0.368 F800
X-65.526 Y-23.682 I0.474 J0.368
X-65.807 Y-23.647 I-0.158 J-0.123
G1 X-65.965 Y-23.769
X-66.006 Y-23.801 Z-2.993
X-66.044 Y-23.831 Z-2.973
X-66.076 Y-23.856 Z-2.941
X-66.102 Y-23.876 Z-2.9
X-66.117 Y-23.888 Z-2.852
X-66.123 Y-23.892 Z-2.8
G0 Z5

(2D Contour2)
M9
X-9.885 Y30.1
G1 Z5 F333.3
Z2.712
G19 G2 Y29.9 Z2.512 J-0.2
G1 Y29.7 F800
G17 G3 X-9.685 Y29.5 I0.2
G1 X-0.068 Z-0.988 F333.3
G18 G2 X0 Z-1 I0.068 K0.188
G1 X76 F800
G17 G2 X77 Y28.5 J-1
G1 Y5
G2 X76 Y4 I-1
G1 X75
Y-4
X76
G2 X77 Y-5 J-1
G1 Y-28.5
G2 X76 Y-29.5 I-1
G1 X-76
G2 X-77 Y-28.5 J1
G1 Y-5
G2 X-76 Y-4 I1
G1 X-75
Y4
X-76
G2 X-77 Y5 J1
G1 Y28.5
G2 X-76 Y29.5 I1
G1 X-54
G2 X-53 Y28.5 J-1
G1 X-35
G2 X-34 Y29.5 I1
G1 X0
X4.317 Z-2 F333.3
X76 F800
G2 X77 Y28.5 J-1
G1 Y5
G2 X76 Y4 I-1
G1 X75
Y-4
X76
G2 X77 Y-5 J-1
G1 Y-28.5
G2 X76 Y-29.5 I-1
G1 X-76
G2 X-77 Y-28.5 J1
G1 Y-5
G2 X-76 Y-4 I1
G1 X-75
Y4
X-76
G2 X-77 Y5 J1
G1 Y28.5
G2 X-76 Y29.5 I1
G1 X-54
G2 X-53 Y28.5 J-1
G1 X-35
G2 X-34 Y29.5 I1
G1 X0
X4.317
X8.634 Z-3 F333.3
X76 F800
G2 X77 Y28.5 J-1
G1 Y5
G2 X76 Y4 I-1
G1 X75
Y-4
X76
G2 X77 Y-5 J-1
G1 Y-28.5
G2 X76 Y-29.5 I-1
G1 X-76
G2 X-77 Y-28.5 J1
G1 Y-5
G2 X-76 Y-4 I1
G1 X-75
Y4
X-76
G2 X-77 Y5 J1
G1 Y28.5
G2 X-76 Y29.5 I1
G1 X-54
G2 X-53 Y28.5 J-1
G1 X-35
G2 X-34 Y29.5 I1
G1 X4.317
X8.634
G3 X8.834 Y29.7 J0.2
G1 Y29.9
G19 G3 Y30.1 Z-2.8 K0.2
G0 Z5
G17
M9
M30
%
